X: 27658
T: Moran's Return
R: barndance
M: 4/4
K: Gmajor
(3Bcd|e2 A2 A2 d>c|B2 G2 G2 g>a|bagf gedB|A2 A>B c2 c>d|
e2 A2 A2 d>c|B2 G2 G2 g>a|bagf gedB|A2 G2 G2||
B>A|G2 g>f g3 a|bagf e2 d>B|e2 a2 a3 b|c'bag a2 g>a|
b2 c'b a2 ba|gage d2 g>a|bagf gedB|A2 G2 G2||

